X:1
T:40
T:40
T:Études enfantines op. 37
T:Henry Lemoine
C:Henry Lemoine
%%score { ( 1 3 ) | 2 }
L:1/8
Q:1/4=120
M:2/4
K:A
V:1 treble nm="Piano" snm="Pno."
V:3 treble 
V:2 bass 
V:1
"^Andantino"!mf! (!3!c/A/!^!e) (d/B/!^!e) | (c/A/!^!e) (d/B/!^!e) | %2
 (!3!c/e/d/c/ B/!1!A/!2!G/!3!A/ | !4!^A/B/G/E/ F/G/!1!=A/B/) | (!3!c/A/!^!e) (d/B/!^!e) | %5
 (c/A/!^!e) (d/B/!^!e) |!p! (c/.e/) z/ (!1!A/ B/.d/) z/ !2!G/ | (!>!B2 .A) z!fine! |] %8
 (!2!G/!4!c/B !1!A/!4!c/B | G/c/B A/c/B | (!2!G/)!1!B/c/^d/ e/d/!1!e/!2!^e/ | %11
 g/f/!1!=e/!3!^d/ c/B/!3!^A/!1!=A/ | (!2!G/)!4!c/B !1!A/!4!c/B | G/c/B A/c/B | %14
 G/)(!1!B/!4!e/^d/ !2!c/f/!1!A/!3!d/ | !>!!1!!5![Af]2 .!1!!4![Ge]) z | %16
!f! (!2!G/B/!^!e) (!1!A/c/!^!e-) | (e/d/!^!B) (d/c/!^!A) | (!2!G/B/!^!e) (!1!A/c/!^!e-) | %19
 (e/d/!^!B) (c/e/!^!!2!G/!1!A/) |!mf!!>(! (!4!d>^B c>)!>)!(c |!>(! !4!d>^B c>)!>)!(!4!c | %22
!>(! =B>^A c>!>)!B |!>(! !1!=A>!2!G !4!B>!>)!A) |!p! (!3!A>!2!G) (!3!G>!2!F) | %25
"_molto rallentando" !3!F2- (F/!1!E/D/!1!E/ |!<(! F/G/!1!A/!2!^A/) (!1!B!<)!!2!^B)!D.C.! |] %27
V:2
 (!4!A,>E !5!G,>E | A,>E G,>E | A,) z z (!2!C | !^!D3 C/B,/ | (!4!A,>)E !5!G,>E | A,>E G,>E | %6
 .A,) (!1!F!3!DE) | (!4!!1![A,D]2 .[A,C]) z |] (!4!E,>B, !5!^D,>B, | E,>B, ^D,>B, | %10
 E,) z z (!2!G, | A,F, ^D,2) | !4!E,>B, !5!^D,>B, | E,>B, ^D,>B, | !5!E,(!3!G, A,B, | %15
 !5!E,/)(!1!B,/!3!C/^D/ .E) z | !2!=D>E C>E | G,>E A,>E | !2!D>E C>E | G,>E A, z | %20
[K:treble] z/ !3!F/-[FA] z/ !4!^E/-[EG] | z/ F/-[FA] z/ !4!^E/-[EG] | %22
 z/ !4!=E/-[E=G] z/ !4!^D/-!2![DF] | z/ !4!=D/-!1![D=F] z/ !3!C/-[CE] | %24
 z/ !3!B,/-[B,D] z/ !4!A,/-[A,D] | z/ !5!G,/-[G,D] z2 | z4 |] %27
V:3
 x4 | x4 | x4 | x4 | x4 | x4 | x4 | x4 |] G2 A2 | G2 A2 | x4 | x4 | G2 A2 | G2 A2 | x4 | x4 | x4 | %17
 x4 | x4 | x4 | x4 | x4 | x4 | x4 | x4 | x4 | x4 |] %27

